img/error-abstract-figure-left.svg

<svg width="326" height="1081" fill="none" xmlns="http://www.w3.org/2000/svg"><path d="M3 0v1081M29.667 0v1081M56.333 0v1081M83 0v1081M243 0v1081M269.667 0v1081M296.333 0v1081M323 0v1081" stroke="#710C0C" stroke-opacity=".3" stroke-width="4.233"/></svg>

<svg width="326" height="1081" viewBox="0 0 326 1081" fill="none" xmlns="http://www.w3.org/2000/svg">
<path d="M3 0V1081M29.6667 0V1081M56.3333 0V1081M83 0V1081M243 0V1081M269.667 0V1081M296.333 0V1081M323 0V1081" stroke="#710C0C" stroke-opacity="0.3" stroke-width="4.23285"/>
</svg>
